src/desktop/assets/theme/dark/draw-rectangle.svg

<svg version="1.1" viewBox="0 0 22 22" xmlns="http://www.w3.org/2000/svg">
    <defs>
        <style type="text/css" id="current-color-scheme">.ColorScheme-Text {
        color:#eff0f1;
      }</style>
    </defs>
    <path class="ColorScheme-Text" transform="translate(-.99999-.99999)" d="m4 4v16h16v-16h-16m1 1h14v14h-14v-14" fill="currentColor"/>
    <path d="m3.5056345 10.977883v-7.5052069h14.878582v15.010415h-14.878582z" class="ColorScheme-Text" fill="currentColor" fill-opacity=".50196078"/>
</svg>

<?xml version="1.0" encoding="UTF-8" standalone="no"?>
<!-- Created with Inkscape (http://www.inkscape.org/) -->

<svg
   xmlns:dc="http://purl.org/dc/elements/1.1/"
   xmlns:cc="http://creativecommons.org/ns#"
   xmlns:rdf="http://www.w3.org/1999/02/22-rdf-syntax-ns#"
   xmlns:svg="http://www.w3.org/2000/svg"
   xmlns="http://www.w3.org/2000/svg"
   xmlns:sodipodi="http://sodipodi.sourceforge.net/DTD/sodipodi-0.dtd"
   xmlns:inkscape="http://www.inkscape.org/namespaces/inkscape"
   width="22"
   height="22"
   id="svg3760"
   version="1.1"
   inkscape:version="0.91+devel r"
   sodipodi:docname="draw-rectangle.svg">
  <defs
     id="defs3762" />
  <sodipodi:namedview
     id="base"
     pagecolor="#ffffff"
     bordercolor="#666666"
     borderopacity="1.0"
     inkscape:pageopacity="0.0"
     inkscape:pageshadow="2"
     inkscape:zoom="16.3125"
     inkscape:cx="8.195294"
     inkscape:cy="10.786868"
     inkscape:document-units="px"
     inkscape:current-layer="layer1"
     showgrid="true"
     fit-margin-top="0"
     fit-margin-left="0"
     fit-margin-right="0"
     fit-margin-bottom="0"
     inkscape:window-width="1366"
     inkscape:window-height="670"
     inkscape:window-x="-4"
     inkscape:window-y="29"
     inkscape:window-maximized="1"
     inkscape:showpageshadow="false">
    <sodipodi:guide
       position="-0.99999557,22.999999"
       orientation="24,0"
       id="guide4115" />
    <sodipodi:guide
       position="-0.99999557,-1.0000018"
       orientation="0,24"
       id="guide4117" />
    <sodipodi:guide
       position="23.000004,-1.0000018"
       orientation="-24,0"
       id="guide4119" />
    <sodipodi:guide
       position="23.000004,22.999999"
       orientation="0,-24"
       id="guide4121" />
    <sodipodi:guide
       position="2.0000044,19.999999"
       orientation="18,0"
       id="guide4123" />
    <sodipodi:guide
       position="2.0000044,1.9999981"
       orientation="0,18"
       id="guide4125" />
    <sodipodi:guide
       position="20.000004,1.9999981"
       orientation="-18,0"
       id="guide4127" />
    <sodipodi:guide
       position="20.000004,19.999999"
       orientation="0,-18"
       id="guide4129" />
    <sodipodi:guide
       position="3.0000044,18.999999"
       orientation="16,0"
       id="guide4131" />
    <sodipodi:guide
       position="3.0000044,2.9999981"
       orientation="0,16"
       id="guide4133" />
    <sodipodi:guide
       position="19.000004,2.9999981"
       orientation="-16,0"
       id="guide4135" />
    <sodipodi:guide
       position="19.000004,18.999999"
       orientation="0,-16"
       id="guide4137" />
    <inkscape:grid
       type="xygrid"
       id="grid4139"
       originx="-0.99998114"
       originy="-1.0000137" />
  </sodipodi:namedview>
  <metadata
     id="metadata3765">
    <rdf:RDF>
      <cc:Work
         rdf:about="">
        <dc:format>image/svg+xml</dc:format>
        <dc:type
           rdf:resource="http://purl.org/dc/dcmitype/StillImage" />
        <dc:title></dc:title>
      </cc:Work>
    </rdf:RDF>
  </metadata>
  <g
     inkscape:label="Capa 1"
     inkscape:groupmode="layer"
     id="layer1"
     transform="translate(-551.28571,-607.64789)">
    <path
       style="opacity:1;fill:#f2f2f2;fill-opacity:1;stroke:none"
       d="M 4,4 4,20 20,20 20,4 4,4 Z M 5,5 19,5 19,19 5,19 5,5 Z"
       transform="translate(550.28572,606.6479)"
       id="rect4112"
       inkscape:connector-curvature="0" />
  </g>
</svg>
